flags/gd.svg

<svg width="512" height="512" viewBox="0 0 512 512" fill="none" xmlns="http://www.w3.org/2000/svg">
<rect width="512" height="512" fill="var(--flag-palette-dark-red, #a2001d)"/>
<rect x="64" y="64" width="384" height="383.956" fill="var(--flag-palette-yellow, #ffda44)"/>
<path d="M64 64V448L256 256L64 64Z" fill="var(--flag-palette-dark-green, #496e2d)"/>
<path d="M448 448L448 64L256 256L448 448Z" fill="var(--flag-palette-dark-green, #496e2d)"/>
<circle cx="256" cy="256" r="98.4477" fill="var(--flag-palette-dark-red, #a2001d)"/>
<path d="M256 157.552L278.103 225.578H349.629L291.763 267.62L313.866 335.646L256 293.604L198.133 335.646L220.236 267.62L162.37 225.578H233.897L256 157.552Z" fill="var(--flag-palette-yellow, #ffda44)"/>
<path d="M127.813 251.773C134.388 262.162 131.298 275.913 120.909 282.489C110.521 289.065 96.7686 285.975 90.1926 275.586C78.2876 256.778 85.1906 226.061 85.1906 226.061C85.1906 226.061 115.907 232.964 127.813 251.773Z" fill="var(--flag-palette-yellow, #ffda44)"/>
<path d="M114.955 284.215C121.102 284.215 126.085 279.232 126.085 273.085C126.085 266.938 121.102 261.955 114.955 261.955C108.808 261.955 103.825 266.938 103.825 273.085C103.825 279.232 108.808 284.215 114.955 284.215Z" fill="var(--flag-palette-dark-red, #a2001d)"/>
<path d="M140.8 451.2L147.266 471.101H168.19L151.262 483.4L157.728 503.3L140.8 491.001L123.872 503.3L130.338 483.4L113.41 471.101H134.334L140.8 451.2Z" fill="var(--flag-palette-yellow, #ffda44)"/>
<path d="M255.999 451.2L262.465 471.101H283.39L266.461 483.4L272.927 503.3L255.999 491.001L239.071 503.3L245.537 483.4L228.609 471.101H249.533L255.999 451.2Z" fill="var(--flag-palette-yellow, #ffda44)"/>
<path d="M371.2 451.2L377.666 471.101H398.591L381.663 483.4L388.129 503.3L371.2 491.001L354.272 503.3L360.738 483.4L343.81 471.101H364.734L371.2 451.2Z" fill="var(--flag-palette-yellow, #ffda44)"/>
<path d="M140.8 3.2002L147.266 23.1005H168.19L151.262 35.3996L157.728 55.2999L140.8 43.0008L123.872 55.2999L130.338 35.3996L113.41 23.1005H134.334L140.8 3.2002Z" fill="var(--flag-palette-yellow, #ffda44)"/>
<path d="M255.999 3.2002L262.465 23.1005H283.39L266.461 35.3996L272.927 55.2999L255.999 43.0008L239.071 55.2999L245.537 35.3996L228.609 23.1005H249.533L255.999 3.2002Z" fill="var(--flag-palette-yellow, #ffda44)"/>
<path d="M371.2 3.2002L377.666 23.1005H398.591L381.663 35.3996L388.129 55.2999L371.2 43.0008L354.272 55.2999L360.738 35.3996L343.81 23.1005H364.734L371.2 3.2002Z" fill="var(--flag-palette-yellow, #ffda44)"/>
</svg>

<svg xmlns="http://www.w3.org/2000/svg" width="512" height="512" fill="none"><path fill="var(--flag-palette-dark-red, #a2001d)" d="M0 0h512v512H0z"/><path fill="var(--flag-palette-yellow, #ffda44)" d="M64 64h384v384H64z"/><path fill="var(--flag-palette-dark-green, #496e2d)" d="M64 64v384l192-192zm384 384V64L256 256z"/><circle cx="256" cy="256" r="98.4" fill="var(--flag-palette-dark-red, #a2001d)"/><path fill="var(--flag-palette-yellow, #ffda44)" d="m256 157.6 22.1 68h71.5l-57.8 42 22 68-57.8-42-57.9 42 22.1-68-57.8-42h71.5zm-128.2 94.2a22.3 22.3 0 0 1-37.6 23.8c-12-18.8-5-49.5-5-49.5s30.7 6.9 42.6 25.7"/><path fill="var(--flag-palette-dark-red, #a2001d)" d="M115 284.2a11.1 11.1 0 1 0 0-22.2 11.1 11.1 0 0 0 0 22.2"/><path fill="var(--flag-palette-yellow, #ffda44)" d="m140.8 451.2 6.5 19.9h20.9l-17 12.3 6.5 19.9-16.9-12.3-17 12.3 6.5-19.9-16.9-12.3h21zm115.2 0 6.5 19.9h20.9l-17 12.3 6.5 19.9L256 491l-17 12.3 6.5-19.9-16.9-12.3h21zm115.2 0 6.5 19.9h20.9l-17 12.3 6.5 19.9-16.9-12.3-17 12.3 6.5-19.9-16.9-12.3h21zM140.8 3.2l6.5 19.9h20.9l-17 12.3 6.5 19.9L140.8 43l-17 12.3 6.5-19.9-16.9-12.3h21zm115.2 0 6.5 19.9h20.9l-17 12.3 6.5 19.9L256 43l-17 12.3 6.5-19.9-16.9-12.3h21zm115.2 0 6.5 19.9h20.9l-17 12.3 6.5 19.9L371.2 43l-17 12.3 6.5-19.9-16.9-12.3h21z"/></svg>
